!!!COM:      Bach, Johann Sebastian
!!!CDT:      1685/03/31/-1750/07/28/
!!!OPR@@GER: Das wohltemperirte Clavier
!!!OVM@@GER: Band II
!!!OPR@ENG:  Well-Tempered Clavier
!!!OVM@ENG:  Book II
!!!OTL:      Prelude
!!!OKY:      C-sharp major
!!!ONM:      no. 3
!!!SCT:      BWV 872
!!!OMV:      1
**kern	**kern	**kern	**kern
*clefF4	*clefF4	*clefG2	*clefG2
*k[f#c#g#d#a#e#b#]	*k[f#c#g#d#a#e#b#]	*k[f#c#g#d#a#e#b#]	*k[f#c#g#d#a#e#b#]
*C#:	*C#:	*C#:	*C#:
*M4/4	*M4/4	*M4/4	*M4/4
*met(c)	*met(c)	*met(c)	*met(c)
*MM84	*MM84	*MM84	*MM84
=1-	=1-	=1-	=1-
4C#	8G#	4ryy	16r
.	.	.	16e#
.	8G#	.	16g#
.	.	.	[16cc#
4r	8E#	16g#	4cc#]
.	.	16f#	.
.	8E#	16g#	.
.	.	16e#	.
4C#	8G#	4ryy	16r
.	.	.	16e#
.	8G#	.	16g#
.	.	.	[16cc#
4r	8Bn	16g#	4cc#]
.	.	16f#	.
.	8B	16g#	.
.	.	16e#	.
=2	=2	=2	=2
4C#	8A#	4ryy	16r
.	.	.	16f#
.	8A#	.	16a#
.	.	.	[16cc#
4r	8F#	16a#	4cc#]
.	.	16g#	.
.	8F#	16a#	.
.	.	16f#	.
4C#	8B#X	4ryy	16r
.	.	.	16f#
.	8B#	.	16g#
.	.	.	[16dd#
4r	8B#	16g#	4dd#]
.	.	16f#	.
.	8B#	16g#	.
.	.	16f#	.
=3	=3	=3	=3
4C#	8c#	4ryy	16r
.	.	.	16e#
.	8c#	.	16g#
.	.	.	[16dd#
4r	8c#	16g#	4dd#]
.	.	16f#	.
.	8c#	16g#	.
.	.	16f#	.
4C#	8G#	4ryy	16r
.	.	.	16e#
.	8G#	.	16g#
.	.	.	[16cc#
4r	8E#	16g#	4cc#]
.	.	16f#	.
.	8E#	16g#	.
.	.	16e#	.
=4	=4	=4	=4
4C#	8A#	4ryy	16r
.	.	.	16d#
.	8A#	.	16f##
.	.	.	[16a#
4r	8D#	16f##X	4a#]
.	.	16e#	.
.	8D#	16f##	.
.	.	16d#	.
4BB#	8G#	4ryy	16r
.	.	.	16d#
.	8G#	.	16g#
.	.	.	[16b#
4r	8G#	16g#	4b#]
.	.	16f##X	.
.	8G#	16g#	.
.	.	16d#	.
=5	=5	=5	=5
4AA#	8G#	4ryy	16r
.	.	.	16e#
.	8G#	.	16a#
.	.	.	[16cc#
4r	8G#	16a#	4cc#]
.	.	16g#	.
.	8G#	16a#	.
.	.	16e#	.
4D#	8F##	4ryy	16r
.	.	.	16d#
.	8F##	.	16a#
.	.	.	[16cc#
4r	8F##	16a#	4cc#]
.	.	16g#	.
.	8F##	16a#	.
.	.	16d#	.
=6	=6	=6	=6
4GG#	8G#	4ryy	16r
.	.	.	16d#
.	8D#	.	16a#
.	.	.	[16cc#
4r	8D#	16a#	4cc#]
.	.	16g#	.
.	8F##	16a#	.
.	.	16d#	.
4GG#	8G#	4ryy	16r
.	.	.	16d#
.	8G#	.	16g#
.	.	.	[16b#
4r	8B#	16g#	4b#]
.	.	16f##	.
.	8B#	16g#	.
.	.	16d#	.
=7	=7	=7	=7
4GG#	8A#	4ryy	16r
.	.	.	16e#
.	8E#	.	16a#
.	.	.	[16cc##
4r	8E#	16a#	4cc##]
.	.	16g#	.
.	8C##	16a#	.
.	.	16e#	.
4FF#	8D#	4ryy	16r
.	.	.	16d#
.	8D#	.	16a#
.	.	.	[16dd#
4r	8F#	16a#	4dd#]
.	.	16g#	.
.	8F#	16a#	.
.	.	16d#	.
=8	=8	=8	=8
4EE#	8BB#	4ryy	16r
.	.	.	16e#
.	8BB#	.	16g##
.	.	.	[16dd#
4r	8E#	16g##X	4dd#]
.	.	16f##	.
.	8E#	16g##	.
.	.	16e#	.
4AA#	8E#	4ryy	16r
.	.	.	16e#
.	8E#	.	16a#
.	.	.	[16cc#
4r	8c#	16a#	4cc#]
.	.	16g##X	.
.	8c#	16a#	.
.	.	16e#	.
=9	=9	=9	=9
4A#	8B#	4ryy	16r
.	.	.	16f#
.	8B#	.	16b#
.	.	.	[16dd#
4r	8B#	16b#	4dd#]
.	.	16a#	.
.	8B#	16b#	.
.	.	16f#	.
4G#	8e#	4ryy	16r
.	.	.	16g#
.	8e#	.	16b#
.	.	.	[16ee#
4r	8e#	16b#	4ee#]
.	.	16a#	.
.	8e#	16b#	.
.	.	16g#	.
=10	=10	=10	=10
4A#	8c#	4ryy	16r
.	.	.	16f#
.	8c#	.	16cc#
.	.	.	[16ee#
4r	8c#	16cc#	4ee#]
.	.	16b#	.
.	8c#	16cc#	.
.	.	16f#	.
4B#	8d#	4ryy	16r
.	.	.	16f#
.	8d#	.	16g#
.	.	.	[16dd#
4r	8d#	16g#	4dd#]
.	.	16f#	.
.	8d#	16g#	.
.	.	16f#	.
=11	=11	=11	=11
4E#	8G#	4ryy	16r
.	.	.	16f#
.	8G#	.	16g#
.	.	.	[16dd#
4r	8B#	16g#	4dd#]
.	.	16f#	.
.	8B#	16g#	.
.	.	16f#	.
4E#	8c#	4ryy	16r
.	.	.	16e#
.	8c#	.	16g#
.	.	.	[16cc#
4r	8Bn	16g#	4cc#]
.	.	16f#	.
.	8B	16g#	.
.	.	16e#	.
=12	=12	=12	=12
4F#	8A#	4ryy	16r
.	.	.	16d#
.	8A#	.	16f#
.	.	.	[16cc#
4r	8A#	16f#	4cc#]
.	.	16e#	.
.	8A#	16f#	.
.	.	16d#	.
4G#	8Bn	4ryy	16r
.	.	.	16d#
.	8B	.	16f#
.	.	.	[16bn
4r	8B	16f#	4b]
.	.	16e#	.
.	8B	16f#	.
.	.	16d#	.
=13	=13	=13	=13
4C#	8G#	4ryy	16r
.	.	.	16c#
.	8G#	.	16e#
.	.	.	[16bn
4r	8G#	16e#	4b]
.	.	16d#	.
.	8G#	16e#	.
.	.	16c#	.
4F#	8A#	4ryy	16r
.	.	.	16c#
.	8A#	.	16f#
.	.	.	[16a#
4r	8A#	16f#	4a#]
.	.	16e#	.
.	8A#	16f#	.
.	.	16c#	.
=14	=14	=14	=14
4BB#	8D#	4ryy	16r
.	.	.	16d#
.	8D#	.	16f#
.	.	.	[16g#
4r	8D#	16f#	4g#]
.	.	16e#	.
.	8D#	16f#	.
.	.	16d#	.
4C##	8E#	4ryy	16r
.	.	.	16A#
.	8E#	.	16e#
.	.	.	[16g#
4r	8A#	16e#	4g#]
.	.	16d#	.
.	8A#	16e#	.
.	.	16c##	.
=15	=15	=15	=15
4D#	8Bn	4ryy	16r
.	.	.	16c##
.	8B	.	16e#
.	.	.	[16g#
4r	8B	16e#	4g#]
.	.	16d#	.
.	8B	16e#	.
.	.	16c##X	.
4D#	8A#	4ryy	16r
.	.	.	16c#X
.	8A#	.	16d#
.	.	.	[16f##
4r	8A#	16d#	4f##]
.	.	16c#X	.
.	8A#	16d#	.
.	.	16c#	.
=16	=16	=16	=16
4D#	8G#	4ryy	16r
.	.	.	16B#
.	8G#	.	16d#
.	.	.	[16f#X
4r	8G#	16d#	4f#]
.	.	16c#	.
.	8G#	16d#	.
.	.	16B#	.
4C#	8G#	4ryy	16r
.	.	.	16Bn
.	8G#	.	16c#
.	.	.	[16e#
4r	8G#	16c#	4e#]
.	.	16Bn	.
.	8G#	16c#	.
.	.	16B	.
=17	=17	=17	=17
4FF#	8F#	4ryy	16r
.	.	.	16A#
.	8F#	.	16c#
.	.	.	[16e#
4r	8F#	16c#	4e#]
.	.	16B#X	.
.	8F#	16c#	.
.	.	16A#	.
4FF#	8F#	4ryy	16r
.	.	.	16A#
.	8F#	.	16c#
.	.	.	[16d#
4r	8F#	16c#	4d#]
.	.	16B#	.
.	8F#	16c#	.
.	.	16A#	.
=18	=18	=18	=18
4FF#	8D#	4ryy	16r
.	.	.	16G#
.	8D#	.	16B#
.	.	.	[16d#
4r	8D#	16B#	4d#]
.	.	16A#	.
.	8D#	16B#	.
.	.	16G#	.
4EE#	8C#	4ryy	16r
.	.	.	16G#
.	8C#	.	16c#
.	.	.	[16e#
4r	8GG#	16c#	4e#]
.	.	16B#	.
.	8C#	16c#	.
.	.	16G#	.
=19	=19	=19	=19
4DD#	8C#	4ryy	16r
.	.	.	16A#
.	8C#	.	16d#
.	.	.	[16f#
4r	8C#	16d#	4f#]
.	.	16c#	.
.	8C#	16d#	.
.	.	16A#	.
4GG#	8BB#	4ryy	16r
.	.	.	16G#
.	8BB#	.	16d#
.	.	.	[16f#
4r	8BB#	16d#	4f#]
.	.	16c#	.
.	8BB#	16d#	.
.	.	16G#	.
=20	=20	=20	=20
4CC#	8C#	4ryy	16r
.	.	.	16G#
.	8GG#	.	16d#
.	.	.	[16f#
4r	8GG#	16d#	4f#]
.	.	16c#	.
.	8BB#	16d#	.
.	.	16G#	.
4CC#	8C#	4ryy	16r
.	.	.	16G#
.	8C#	.	16c#
.	.	.	[16e#
4r	8E#	16c#	4e#]
.	.	16B#	.
.	8E#	16c#	.
.	.	16G#	.
=21	=21	=21	=21
4C#	8D#	4ryy	16r
.	.	.	16A#
.	8D#	.	16d#
.	.	.	[16f##
4r	8D#	16d#	4f##]
.	.	16c#	.
.	8D#	16d#	.
.	.	16A#	.
4BBn	8D#	4ryy	16r
.	.	.	16Bn
.	8D#	.	16d#
.	.	.	[16g#
4r	8G#	16d#	4g#]
.	.	16c#	.
.	8G#	16d#	.
.	.	16Bn	.
=22	=22	=22	=22
4En	8G#	4ryy	16r
.	.	.	16Bn
.	8G#	.	16d#
.	.	.	[16g#
4r	8G#	16d#	4g#]
.	.	16c#	.
.	8G#	16d#	.
.	.	16Bn	.
4E#	8G#	4ryy	16r
.	.	.	16Bn
.	8G#	.	16c##
.	.	.	[16g#
4r	8G#	16d#	4g#]
.	.	16c##X	.
.	8G#	16d#	.
.	.	16c##	.
=23	=23	=23	=23
4D#	8G#	4ryy	16r
.	.	.	16Bn
.	8G#	.	16d#
.	.	.	[16g#
4r	8G#	16d#	4g#]
.	.	16c#X	.
.	8G#	16d#	.
.	.	16Bn	.
4D#	8Bn	4ryy	16r
.	.	.	16c##
.	8B	.	16e#
.	.	.	[16g#
4r	8B	16e#	4g#]
.	.	16d#	.
.	8B	16e#	.
.	.	16c##X	.
=24	=24	=24	=24
4D#	8A#	4ryy	16r
.	.	.	16c#X
.	8A#	.	16en
.	.	.	[16g#
4r	8A#	16e	4g#]
.	.	16d#	.
.	8A#	16e	.
.	.	16c#	.
4D#	8A#	4ryy	16r
.	.	.	16c#
.	8A#	.	16d#
.	.	.	[16f##
4r	8A#	16d#	4f##]
.	.	16c#	.
.	8A#	16d#	.
.	.	16c#	.
=25	=25	=25	=25
*MM70	*MM70	*MM70	*MM70
*M3/8	*M3/8	*M3/8	*M3/8
8GG#	8G#	8B# 8d#	8g#
8r	8r	4ryy	16d#
.	.	.	16c#
8r	8r	.	16d#
.	.	.	16e#
=26	=26	=26	=26
.	.	.	8e#Q
*	*	*clefF4	*
4.r	4.ryy	8r	[4.f#p
.	.	16A#	.
.	.	16G#	.
.	.	16A#	.
.	.	16B#	.
=27	=27	=27	=27
.	.	8B#Q	.
4.r	4.ryy	[4.c#p	8f#]
.	.	.	8e#
.	.	.	8a#
=28	=28	=28	=28
4.r	4.ryy	8c#]	8d#
.	.	8B#	[4g#M
.	.	8e#	.
=29	=29	=29	=29
4.r	4.ryy	8A#	8g#]
.	.	[4d#M	16f#
.	.	.	16e#
.	.	.	16f#
.	.	.	16g#
=30	=30	=30	=30
.	.	.	8f#Q
8r	4.ryy	8d#]	4.e#
16E#	.	[4c#	.
16D#	.	.	.
16E#	.	.	.
16F#	.	.	.
=31	=31	=31	=31
[4.G#	4.ryy	8c#]	8d#
.	.	16B#	16g#
.	.	16A#	16f##
.	.	16B#	16g#
.	.	16c#	16a#
=32	=32	=32	=32
8G#]	4.ryy	8d#	16b#
.	.	.	16g#
8E#	.	8G#	16cc#
.	.	.	16dd#
8A#	.	8c#	16cc#
.	.	.	16b#
=33	=33	=33	=33
*	*	*staff:6	*
*	*	*clefG2	*
8D#	4.ryy	[4.f#	16a#
.	.	.	16b#
8G#	.	.	8.b#t
8GG#	.	.	.
.	.	.	16cc#
=34	=34	=34	=34
8C#	4.ryy	16f#]	8cc#
.	.	16e#	.
16c#	.	[4g#	8ee#
16d#	.	.	.
16c#	.	.	8dd#
16B#	.	.	.
=35	=35	=35	=35
[4.A#	4.ryy	16g#]	8cc#
.	.	16e#	.
.	.	16c#	16ff#
.	.	16e#	16gg#
.	.	16d#	16ff#
.	.	16c#	16ee#
=36	=36	=36	=36
16A#]	4.ryy	8B#	[4dd#
16A#	.	.	.
16G##	.	8b#	.
16F##	.	.	.
16G##	.	[8e#	16dd#]
16E#	.	.	16dd#
=37	=37	=37	=37
8A#	4.ryy	16e#]	8.cc#
.	.	16e#	.
16AA#	.	[4f#	.
16GG#	.	.	16b#
16AA#	.	.	16cc#
16BB#	.	.	16dd#
=38	=38	=38	=38
[4.C#	4.ryy	16f#]	8g#
.	.	[8.e#	.
.	.	.	16cc#
.	.	.	16dd#
.	.	8e#]	16cc#
.	.	.	16b#
=39	=39	=39	=39
8C#]	4.ryy	16f##	8a#
.	.	16d#	.
8BB#	.	16g#	8.b#
.	.	16f##	.
8E#	.	[8g#	.
.	.	.	16b#
=40	=40	=40	=40
8AA#	4.ryy	16g#]	[4cc#
.	.	16g#	.
8D#	.	16f##	.
.	.	16e#	.
8DD#	.	8f##	16cc#]
.	.	.	16cc#
=41	=41	=41	=41
16GG#	4.ryy	8g#	8b#
16FF##	.	.	.
16GG#	.	16d#	8r
16AA#	.	16c#	.
16BB#	.	16d#	8r
16C#	.	16e#	.
=42	=42	=42	=42
16D#	4.ryy	[4.f#	8r
16C##	.	.	.
16D#	.	.	16a#
16E#	.	.	16g#
16F#	.	.	16a#
16G#	.	.	16b#
=43	=43	=43	=43
16A#	4.ryy	8f#]	[4.cc#
16G##	.	.	.
16A#	.	8e#	.
16B#	.	.	.
16c#	.	8a#	.
16d#	.	.	.
=44	=44	=44	=44
16e#	4.ryy	4g##	8cc#]
16d#	.	.	.
16e#	.	.	8b#
16f#	.	.	.
16e#	.	[8g#X	8ee#
16d#	.	.	.
=45	=45	=45	=45
16c##	4.ryy	8g#]	4a#
16A#	.	.	.
16d#	.	8f##	.
16e#	.	.	.
16d#	.	[8f#X	8dd#
16c#X	.	.	.
=46	=46	=46	=46
16B#	4.ryy	8f#]	4g#
16G#	.	.	.
16c#	.	8e#	.
16Bn	.	.	.
16A#	.	8en	[8cc#
16G#	.	.	.
=47	=47	=47	=47
16F##	4.ryy	[4.d#	8cc#]
16D#	.	.	.
16G#	.	.	16b#
16A#	.	.	16a#
16G#	.	.	16b#
16F#X	.	.	16dd#
=48	=48	=48	=48
16E#	4.ryy	8d#]	8g#
16F#	.	.	.
16E#	.	8c#	8cc#
16D#	.	.	.
16E#	.	[8d#	8f#
16F#	.	.	.
=49	=49	=49	=49
*	*staff:1	*	*
8G#	4ryy	16d#]	8e#
.	.	8c#	.
8FF#	.	.	4d#
.	.	16A#	.
8GG#	16r	8B#	.
.	16F#	.	.
=50	=50	=50	=50
*	*	*staff:1	*
*	*	*clefF4	*
4.CC#	4.E#	4.G#	4.c#;
==	==	==	==
*-	*-	*-	*-
!!!AFR:  prelude
!!!EFL:  53/96
!!!END:  1994/01/30/
!!!VID:  1532344454 Bach, BWV 872-01
!!!AST:  Baroque
!!!OCY:  Deutschland
!!!ODT:  1742///
!!!PDT:  1801///
!!!EED:  Walter Hewlett
!!!ENC:  Walter Hewlett
!!!YOR:  Bach Gesellschaft Edition xiv
!!!AFT:  enhanced SCORE
!!!RDT:  2011/10/07/ by Andreas Kornstaedt using massScr2hmd
!!!SCA1: Thematisch-systematisches Verzeichnis der musikalischen Werke 
!!!SCA2: Johann Sebastian Bach: Bach-Werke-Verzeichnis (Schmieder)
!!!YEC1: Copyright 1994, 2000 Center for Computer Assisted Research 
!!!YEC2: in the Humanities
!!!YEM1: Rights to all derivative editions reserved.
!!!YEM2: Refer to licensing agreement for further details.
!!!YEN:  United States of America
!!!ref:  @{OTL}, @{SCT}
!!muse2ps: T^@{OTL} @{ONM} in @{OKY}^C^J.S. Bach\n@{SCT}-@{OMV}^
!!muse2ps: u^@{OPR@ENG}, @{OVM@ENG}^j
